source/icons/people.svg

<svg xmlns="http://www.w3.org/2000/svg" width="8" height="8" viewBox="0 0 8 8">
  <path d="M5.5 0c-.51 0-.95.35-1.22.88.45.54.72 1.28.72 2.13 0 .29-.03.55-.09.81.19.11.38.19.59.19.83 0 1.5-.9 1.5-2s-.67-2-1.5-2zm-3 1c-.83 0-1.5.9-1.5 2s.67 2 1.5 2 1.5-.9 1.5-2-.67-2-1.5-2zm4.75 3.16c-.43.51-1.02.82-1.69.84.27.38.44.84.44 1.34v.66h2v-1.66c0-.52-.31-.97-.75-1.19zm-6.5 1c-.44.22-.75.67-.75 1.19v1.66h5v-1.66c0-.52-.31-.97-.75-1.19-.45.53-1.06.84-1.75.84s-1.3-.32-1.75-.84z"
  />
</svg>

<svg xmlns="http://www.w3.org/2000/svg" width="8" height="8" viewBox="0 0 8 8"><path d="M5.5 0c-.51 0-.95.35-1.22.88.45.54.72 1.28.72 2.13 0 .29-.03.55-.09.81.19.11.38.19.59.19.83 0 1.5-.9 1.5-2s-.67-2-1.5-2zm-3 1C1.67 1 1 1.9 1 3s.67 2 1.5 2S4 4.1 4 3s-.67-2-1.5-2zm4.75 3.16c-.43.51-1.02.82-1.69.84.27.38.44.84.44 1.34V7h2V5.34c0-.52-.31-.97-.75-1.19zm-6.5 1C.31 5.38 0 5.83 0 6.35v1.66h5V6.35c0-.52-.31-.97-.75-1.19C3.8 5.69 3.19 6 2.5 6S1.2 5.68.75 5.16z"/></svg>
